export/images/flags/sb.svg

<?xml version="1.0" encoding="UTF-8" standalone="no"?>
<!-- Created with Sodipodi ("http://www.sodipodi.com/") -->
<svg id="svg548" xmlns:rdf="http://www.w3.org/1999/02/22-rdf-syntax-ns#" xmlns="http://www.w3.org/2000/svg" height="480" width="640" version="1.1" xmlns:cc="http://creativecommons.org/ns#" xmlns:dc="http://purl.org/dc/elements/1.1/">
 <metadata id="metadata3032">
  <rdf:RDF>
   <cc:Work rdf:about="">
  <dc:format>image/svg+xml</dc:format>
  <dc:type rdf:resource="http://purl.org/dc/dcmitype/StillImage"/>
   </cc:Work>
  </rdf:RDF>
 </metadata>
 <defs id="defs550">
  <clipPath id="clipPath15551" clipPathUnits="userSpaceOnUse">
   <rect id="rect15553" fill-opacity="0.67" height="512" width="682.67" y="0" x="0"/>
  </clipPath>
 </defs>
 <g id="flag" fill-rule="evenodd" clip-path="url(#clipPath15551)" transform="scale(.9375)" stroke-width="1pt">
  <path id="path1338" d="m0.000065516 507.17 987.43-507.17h-987.43v507.17z" fill="#0000d6"/>
  <path id="path552" d="m1024 0.0000021658-996.83 512h996.83v-512z" fill="#006000"/>
  <path id="path558" d="m1024 0.000057287h-54.858l-969.14 485.36v26.64h54.857l969.14-484.4v-27.596z" fill="#fc0"/>
  <polygon id="polygon1350" transform="matrix(.54314 0 0 .51115 -218.52 -122.19)" points="533.78 256.9 555.61 324.28 626.44 324.23 569.1 365.81 591.04 433.16 591.04 433.16 533.77 391.48 476.5 433.15 498.45 365.81 441.12 324.21 511.95 324.28" fill="#fff"/>
  <polygon id="polygon1351" transform="matrix(.54314 0 0 .51115 -27.378 -122.19)" points="533.78 256.9 555.61 324.28 626.44 324.23 569.1 365.81 591.04 433.16 591.04 433.16 533.77 391.48 476.5 433.15 498.45 365.81 441.12 324.21 511.95 324.28" fill="#fff"/>
  <polygon id="polygon1352" transform="matrix(.54314 0 0 .51115 -27.378 22.289)" points="533.78 256.9 555.61 324.28 626.44 324.23 569.1 365.81 591.04 433.16 591.04 433.16 533.77 391.48 476.5 433.15 498.45 365.81 441.12 324.21 511.95 324.28" fill="#fff"/>
  <polygon id="polygon1353" transform="matrix(.54314 0 0 .51115 -122.39 -49.108)" points="533.78 256.9 555.61 324.28 626.44 324.23 569.1 365.81 591.04 433.16 591.04 433.16 533.77 391.48 476.5 433.15 498.45 365.81 441.12 324.21 511.95 324.28" fill="#fff"/>
  <polygon id="polygon1354" transform="matrix(.54314 0 0 .51115 -218.52 22.289)" points="533.78 256.9 555.61 324.28 626.44 324.23 569.1 365.81 591.04 433.16 591.04 433.16 533.77 391.48 476.5 433.15 498.45 365.81 441.12 324.21 511.95 324.28" fill="#fff"/>
 </g>
</svg>

<svg xmlns="http://www.w3.org/2000/svg" height="480" width="640"><defs><clipPath id="a"><path fill-opacity=".67" d="M0 0h682.67v512H0z"/></clipPath></defs><g fill-rule="evenodd" clip-path="url(#a)" transform="scale(.9)" stroke-width="1pt"><path d="M0 507.17L987.43 0H0v507.17z" fill="#0000d6"/><path d="M1024 0L27.17 512H1024V0z" fill="#006000"/><path d="M1024 0h-54.86L0 485.36V512h54.86L1024 27.6V0z" fill="#fc0"/><path fill="#fff" d="M71.4 9.12l11.85 34.45 38.47-.03L90.58 64.8 102.5 99.2l-31.1-21.3-31.1 21.3 11.9-34.43-31.13-21.27 38.47.04M262.54 9.12l11.86 34.45 38.47-.03-31.15 21.25 11.92 34.42-31.1-21.3-31.1 21.3 11.9-34.43-31.13-21.27 38.48.04M262.54 153.6l11.86 34.44 38.47-.02-31.15 21.25 11.92 34.43-31.1-21.3-31.1 21.3 11.9-34.43L212.22 188l38.48.04M167.53 82.2l11.85 34.45 38.47-.03-31.14 21.26 11.93 34.42-31.1-21.3-31.1 21.3 11.9-34.42-31.13-21.27 38.47.05M71.4 153.6l11.85 34.44 38.47-.02-31.14 21.25 11.92 34.43-31.1-21.3-31.1 21.3 11.9-34.43L21.08 188l38.47.04"/></g></svg>
